svgs/regular/light-switch-on.svg

<svg xmlns="http://www.w3.org/2000/svg" viewBox="0 0 384 512"><!-- Font Awesome Pro 6.0.0-alpha2 by @fontawesome - https://fontawesome.com License - https://fontawesome.com/license (Commercial License) --><path d="M320 0H64C28.654 0 0 28.654 0 64V448C0 483.346 28.654 512 64 512H320C355.346 512 384 483.346 384 448V64C384 28.654 355.346 0 320 0ZM336 448C336 456.837 328.837 464 320 464H214.375C211.125 454.375 202.125 448 192 448S172.875 454.375 169.625 464H64C55.163 464 48 456.837 48 448V64C48 55.163 55.163 48 64 48H169.625C172.875 57.625 181.875 64 192 64S211.125 57.625 214.375 48H320C328.837 48 336 55.163 336 64V448ZM240 96H144C117.6 96 96 117.6 96 144V368C96 394.4 117.6 416 144 416H240C266.4 416 288 394.4 288 368V144C288 117.6 266.4 96 240 96ZM240 368H144V272H240V368Z"/></svg>

<svg xmlns="http://www.w3.org/2000/svg" viewBox="0 0 384 512"><!--! Font Awesome Pro 6.3.0 by @fontawesome - https://fontawesome.com License - https://fontawesome.com/license (Commercial License) Copyright 2023 Fonticons, Inc. --><path d="M169.4 48c3.3 9.3 12.2 16 22.6 16s19.3-6.7 22.6-16H320c8.8 0 16 7.2 16 16V448c0 8.8-7.2 16-16 16H214.6c-3.3-9.3-12.2-16-22.6-16s-19.3 6.7-22.6 16H64c-8.8 0-16-7.2-16-16V64c0-8.8 7.2-16 16-16H169.4zM64 0C28.7 0 0 28.7 0 64V448c0 35.3 28.7 64 64 64H320c35.3 0 64-28.7 64-64V64c0-35.3-28.7-64-64-64H64zm80 256h96V368H144V256zm0-160c-26.5 0-48 21.5-48 48V368c0 26.5 21.5 48 48 48h96c26.5 0 48-21.5 48-48V144c0-26.5-21.5-48-48-48H144z"/></svg>
